icons/rocket-15.svg

<?xml version="1.0" encoding="UTF-8" standalone="no"?>
<!-- Generator: Adobe Illustrator 17.1.0, SVG Export Plug-In . SVG Version: 6.00 Build 0)  -->

<svg
   xmlns:dc="http://purl.org/dc/elements/1.1/"
   xmlns:cc="http://creativecommons.org/ns#"
   xmlns:rdf="http://www.w3.org/1999/02/22-rdf-syntax-ns#"
   xmlns:svg="http://www.w3.org/2000/svg"
   xmlns="http://www.w3.org/2000/svg"
   xmlns:sodipodi="http://sodipodi.sourceforge.net/DTD/sodipodi-0.dtd"
   xmlns:inkscape="http://www.inkscape.org/namespaces/inkscape"
   version="1.1"
   id="svg4619"
   x="0px"
   y="0px"
   height='15'
   width='15'
   viewBox="0 0 15 15"
   enable-background="new 0 0 15 15"
   xml:space="preserve"
   inkscape:version="0.91 r13725"
   sodipodi:docname="rocket-15.svg"><metadata
     id="metadata8"><rdf:RDF><cc:Work
         rdf:about=""><dc:format>image/svg+xml</dc:format><dc:type
           rdf:resource="http://purl.org/dc/dcmitype/StillImage" /><dc:title></dc:title></cc:Work></rdf:RDF></metadata><defs
     id="defs6" /><sodipodi:namedview
     pagecolor="#ffffff"
     bordercolor="#666666"
     borderopacity="1"
     objecttolerance="10"
     gridtolerance="10"
     guidetolerance="10"
     inkscape:pageopacity="0"
     inkscape:pageshadow="2"
     inkscape:window-width="1668"
     inkscape:window-height="897"
     id="namedview4"
     showgrid="false"
     inkscape:snap-bbox="true"
     inkscape:bbox-paths="true"
     inkscape:bbox-nodes="true"
     inkscape:snap-bbox-edge-midpoints="true"
     inkscape:snap-bbox-midpoints="true"
     inkscape:object-paths="true"
     inkscape:snap-intersection-paths="true"
     inkscape:object-nodes="true"
     inkscape:snap-smooth-nodes="true"
     inkscape:zoom="8"
     inkscape:cx="33.411293"
     inkscape:cy="-10.203307"
     inkscape:window-x="-3"
     inkscape:window-y="0"
     inkscape:window-maximized="0"
     inkscape:current-layer="svg4619"><inkscape:grid
       type="xygrid"
       id="grid3336"
       spacingx="0.5"
       spacingy="0.5"
       empspacing="2"
       color="#ff0000"
       opacity="0.1254902" /></sodipodi:namedview><path
     style="fill:#000000;fill-opacity:1;stroke-width:1"
     d="M 12.554688,1 C 10.410605,1 7.533587,2.4710378 5.601563,5 L 4,5 c -1.157332,3e-7 -1.82057,0.8637948 -2.277344,1.7773438 L 1.111328,8 2.554688,8 4,8 5.5,9.5 7,11 l 0,1.445312 0,1.44336 1.222656,-0.611328 C 9.136207,12.820574 10,12.157331 10,11 l 0,-1.6015625 c 2.528962,-1.9320248 4,-4.809044 4,-6.953125 L 14,1 12.554688,1 Z M 10,4 A 0.99999982,0.99999982 0 0 1 11,5 0.99999982,0.99999982 0 0 1 10,6 0.99999982,0.99999982 0 0 1 9,5 0.99999982,0.99999982 0 0 1 10,4 Z M 3.5,10 3,10.5 C 2.277777,11.222222 2,13 2,13 2,13 3.697985,12.802014 4.5,12 L 5,11.5 3.5,10 Z"
     id="path7143"
     inkscape:connector-curvature="0" /></svg>

<?xml version="1.0" encoding="utf-8"?>
<!-- Generator: Adobe Illustrator 19.2.1, SVG Export Plug-In . SVG Version: 6.00 Build 0)  -->
<!DOCTYPE svg PUBLIC "-//W3C//DTD SVG 1.1//EN" "http://www.w3.org/Graphics/SVG/1.1/DTD/svg11.dtd">
<svg version="1.1"
	 id="svg4619" inkscape:version="0.91 r13725" sodipodi:docname="rocket-15.svg" xmlns:cc="http://creativecommons.org/ns#" xmlns:dc="http://purl.org/dc/elements/1.1/" xmlns:inkscape="http://www.inkscape.org/namespaces/inkscape" xmlns:rdf="http://www.w3.org/1999/02/22-rdf-syntax-ns#" xmlns:sodipodi="http://sodipodi.sourceforge.net/DTD/sodipodi-0.dtd" xmlns:svg="http://www.w3.org/2000/svg"
	 xmlns="http://www.w3.org/2000/svg" xmlns:xlink="http://www.w3.org/1999/xlink" x="0px" y="0px" width="15px" height="15px"
	 viewBox="0 0 15 15" style="enable-background:new 0 0 15 15;" xml:space="preserve">
<path id="path7143" inkscape:connector-curvature="0" d="M12.5547,1c-2.1441,0-5.0211,1.471-6.9531,4H4
	C2.8427,5,2.1794,5.8638,1.7227,6.7773L1.1113,8h1.4434H4l1.5,1.5L7,11v1.4453v1.4434l1.2227-0.6113
	C9.1362,12.8206,10,12.1573,10,11V9.3984c2.529-1.932,4-4.809,4-6.9531V1H12.5547z M10,4c0.5523,0,1,0.4477,1,1l0,0
	c0,0.5523-0.4477,1-1,1l0,0C9.4477,6,9,5.5523,9,5v0C9,4.4477,9.4477,4,10,4L10,4z M3.5,10L3,10.5C2.2778,11.2222,2,13,2,13
	s1.698-0.198,2.5-1L5,11.5L3.5,10z"/>
</svg>
